X:17
T:Duke of Perth's Reel
S:Petrie's Second Collection of Strathspey Reels and Country Dances &c.
Z:Steve Wyrick , 6/5/04
N:Petrie's Second Collection, page 6
% Gore's Index gives earliest publication as James Aird's
% "Selection of Scotch, English, Irish and Foreign Airs" v4 ca 1790
L:1/8
M:C
R:Reel
K:G
B|(G/A/B/c/ d)B gBdB|gBdB a(AAB)|(G/A/B/c/ d)B gBdB|cA (d/c/B/A/ B)GG::f|
   gage         abaf|gage b(eef)| gage         abaf|gedc         BGG :|
